典雅绿调 709 Lut.cube
TITLE "Generated by Resolve"
LUT_3D_SIZE 9
0.0344701 0.0435187 0.0517281
0.112825 0.0421912 0.0445258
0.25388 0.0472267 0.0389105
0.407233 0.0583352 0.0365148
0.542367 0.0729992 0.0372473
0.659297 0.0871595 0.0385748
0.766613 0.102098 0.0408484
0.864225 0.117266 0.0433204
0.930083 0.128191 0.0447395
0.031754 0.132753 0.107683
0.133532 0.119554 0.0749371
0.300496 0.122301 0.0592813
0.443244 0.135851 0.0560006
0.564263 0.150149 0.0532845
0.671489 0.163729 0.051957
0.773037 0.178286 0.0522164
0.866178 0.19295 0.0532692
0.930785 0.205158 0.0548562
0.0307927 0.249912 0.214893
0.0996109 0.249958 0.173495
0.296117 0.234989 0.102785
0.47953 0.234089 0.0861524
0.604364 0.245335 0.0851911
0.70721 0.258213 0.0843519
0.804288 0.271794 0.0842145
0.887953 0.286046 0.0864729
0.939422 0.297658 0.0894179
0.0266423 0.359518 0.322927
0.0802777 0.383093 0.304768
0.23299 0.387366 0.212894
0.463279 0.364904 0.138323
0.62974 0.361501 0.129625
0.74548 0.369924 0.132906
0.84152 0.381216 0.135561
0.913161 0.391852 0.138262
0.948943 0.402899 0.144533
0.023209 0.464408 0.423178
0.0632944 0.498375 0.429267
0.173526 0.528099 0.365652
0.390707 0.520714 0.243824
0.616632 0.496696 0.188128
0.766674 0.49369 0.189578
0.867918 0.501778 0.197803
0.9299 0.509712 0.205859
0.955505 0.518853 0.21532
0.0158999 0.56054 0.51989
0.0474403 0.595392 0.535561
0.136538 0.631128 0.510048
0.307942 0.652796 0.393957
0.554726 0.637705 0.275319
0.756497 0.618769 0.254612
0.879591 0.621576 0.267964
0.939178 0.629725 0.287007
0.958648 0.637583 0.306477
0.0112459 0.651026 0.608484
0.0380255 0.680842 0.624872
0.112657 0.714794 0.623346
0.258824 0.749477 0.554253
0.477302 0.762448 0.410239
0.710964 0.742702 0.334874
0.867033 0.728725 0.348989
0.93756 0.734874 0.386709
0.95758 0.743038 0.420203
0.00901808 0.736767 0.692363
0.0361181 0.763897 0.707805
0.101488 0.794797 0.715007
0.237873 0.827558 0.681926
0.425788 0.856794 0.567132
0.647105 0.858747 0.43743
0.836271 0.831891 0.426017
0.929397 0.817182 0.477836
0.952743 0.821591 0.525277
0.010132 0.790906 0.744656
0.0392615 0.826444 0.768902
0.104967 0.858579 0.780682
0.229664 0.887007 0.772
0.413611 0.912062 0.692119
0.61239 0.923339 0.555901
0.802411 0.910246 0.501213
0.915572 0.88191 0.535958
0.949233 0.873503 0.589364
0.0373693 0.0786297 0.158328
0.128313 0.0559243 0.130175
0.276173 0.0492256 0.107103
0.428611 0.0546426 0.0921035
0.564492 0.0671855 0.0835889
0.680537 0.0814527 0.0784619
0.784543 0.0972763 0.076524
0.875654 0.113283 0.0765087
0.936034 0.125216 0.0769207
0.0316625 0.167666 0.166201
0.113741 0.143572 0.145266
0.259876 0.13753 0.123568
0.409293 0.147585 0.107881
0.542428 0.161959 0.09691
0.656596 0.176989 0.0914321
0.761547 0.192782 0.0888075
0.857008 0.209461 0.0879377
0.92459 0.223285 0.0890364
0.042298 0.297383 0.233722
0.0898299 0.277043 0.232395
0.261021 0.257923 0.170077
0.436759 0.257191 0.145541
0.562814 0.268437 0.139742
0.670268 0.281895 0.135973
0.772534 0.296742 0.134859
0.864973 0.311238 0.135256
0.928557 0.323537 0.137301
0.0412451 0.415457 0.342245
0.0755474 0.412741 0.357885
0.205097 0.406989 0.289067
0.426474 0.3888 0.205051
0.59707 0.384543 0.189502
0.709468 0.394308 0.192676
0.804654 0.408743 0.19556
0.886336 0.422049 0.198306
0.937148 0.433326 0.202914
0.0325933 0.514473 0.452094
0.0609293 0.525673 0.474891
0.158312 0.541756 0.438895
0.356863 0.537789 0.323247
0.585534 0.517662 0.251682
0.738857 0.513832 0.249897
0.840925 0.523796 0.259693
0.910918 0.535042 0.269368
0.947738 0.546365 0.279973
0.0197604 0.602426 0.552422
0.0466468 0.618326 0.572793
0.132586 0.643168 0.564752
0.291432 0.661021 0.475456
0.523064 0.65359 0.349676
0.72874 0.636347 0.314382
0.859586 0.636545 0.327764
0.926635 0.646387 0.349371
0.954406 0.657267 0.371695
0.0127871 0.684428 0.638422
0.0412299 0.701152 0.655222
0.117662 0.727031 0.661067
0.257603 0.754192 0.620569
0.456748 0.769162 0.4925
0.680491 0.757748 0.396994
0.847745 0.742412 0.401877
0.928252 0.747082 0.440467
0.955489 0.757275 0.476768
0.01149 0.76492 0.719707
0.0405432 0.78172 0.734112
0.110994 0.806363 0.743923
0.244709 0.833478 0.727626
0.420905 0.858763 0.644999
0.621012 0.865934 0.511498
0.811536 0.845518 0.47306
0.919051 0.829938 0.516609
0.951476 0.832776 0.567498
0.0130159 0.819577 0.773419
0.0456703 0.846433 0.796796
0.117006 0.87219 0.809461
0.240879 0.895644 0.806119
0.412497 0.916487 0.759197
0.594491 0.928252 0.640711
0.776623 0.922225 0.553231
0.903136 0.89482 0.571786
0.947158 0.884306 0.623911
0.0504768 0.148104 0.341634
0.143648 0.088426 0.307301
0.312886 0.0471199 0.254505
0.478096 0.0457618 0.207691
0.609369 0.0544747 0.173251
0.717845 0.0674296 0.152331
0.814389 0.0815747 0.139605
0.895033 0.0961624 0.132021
0.943679 0.107973 0.128985
0.0271611 0.225696 0.309361
0.104128 0.184802 0.281254
0.265583 0.150256 0.233936
0.423743 0.149935 0.194232
0.554925 0.162173 0.170642
0.668132 0.17763 0.155795
0.770748 0.195331 0.146487
0.863935 0.213138 0.14316
0.927626 0.22742 0.144259
0.0443885 0.346059 0.298054
0.0830396 0.317861 0.301228
0.232898 0.291478 0.264607
0.401419 0.284535 0.229465
0.540444 0.289509 0.209628
0.655573 0.300237 0.199268
0.761059 0.314443 0.193347
0.855985 0.329931 0.190921
0.924102 0.343313 0.192279
0.0629587 0.47451 0.347402
0.0796979 0.454505 0.389105
0.195163 0.438254 0.369619
0.398062 0.418906 0.30042
0.564141 0.414038 0.271031
0.676982 0.421851 0.263371
0.776181 0.434501 0.259907
0.86508 0.447868 0.25864
0.927321 0.45951 0.260822
0.0601053 0.574945 0.446174
0.0720226 0.566796 0.500191
0.165133 0.566842 0.504402
0.346258 0.559045 0.420294
0.562051 0.54258 0.339101
0.711925 0.538918 0.324697
0.812406 0.548394 0.330327
0.890654 0.560494 0.336141
0.938323 0.572 0.34374
0.0413062 0.655024 0.555947
0.0572213 0.653422 0.599863
0.149859 0.665614 0.613108
0.301289 0.675258 0.559503
0.506661 0.670802 0.444343
0.70518 0.657069 0.389868
0.838254 0.655619 0.397955
0.912688 0.665782 0.417655
0.94847 0.678218 0.436835
0.0242161 0.727031 0.655634
0.0520027 0.730571 0.683711
0.138277 0.747356 0.698512
0.279622 0.767102 0.679805
0.455024 0.779171 0.584512
0.656336 0.774029 0.477607
0.831434 0.758785 0.462715
0.918563 0.762387 0.499077
0.951888 0.773159 0.533272
0.0197604 0.800687 0.742061
0.0521706 0.807034 0.761913
0.135332 0.824323 0.775021
0.269459 0.845731 0.770779
0.433082 0.865553 0.718395
0.608362 0.874205 0.599619
0.789853 0.860166 0.534722
0.908598 0.8448 0.562417
0.949371 0.845838 0.612222
0.0191348 0.850813 0.797971
0.058793 0.868925 0.823529
0.14316 0.887922 0.837705
0.270665 0.906157 0.838895
0.428672 0.92256 0.813916
0.591501 0.932784 0.722652
0.755978 0.929641 0.623819
0.889296 0.906844 0.61648
0.943694 0.895308 0.661006
0.0657969 0.228031 0.529076
0.155886 0.148623 0.507103
0.332586 0.056672 0.455741
0.51313 0.0368048 0.393606
0.649149 0.0416114 0.336797
0.755993 0.051545 0.288716
0.846555 0.0626535 0.252796
0.91545 0.0743877 0.231266
0.947921 0.0836957 0.224033
0.0228733 0.29723 0.483574
0.0927443 0.248997 0.45977
0.266987 0.176928 0.417227
0.454154 0.147127 0.353933
0.593774 0.152346 0.304524
0.702937 0.166003 0.269688
0.798184 0.183001 0.246769
0.882948 0.200717 0.23209
0.935897 0.215549 0.226474
0.0340429 0.396307 0.449836
0.068513 0.369497 0.433082
0.213504 0.331868 0.40267
0.407309 0.303059 0.351568
0.553491 0.300465 0.310323
0.665049 0.310185 0.288121
0.76791 0.324086 0.274708
0.860288 0.340414 0.269108
0.926116 0.355001 0.268681
0.0545663 0.516899 0.426383
0.0688945 0.494911 0.437156
0.181399 0.473518 0.442084
0.376623 0.451072 0.405585
0.539086 0.443458 0.36733
0.658701 0.446586 0.344762
0.760693 0.456718 0.332235
0.853407 0.469932 0.325887
0.922118 0.481819 0.328206
0.0735637 0.626932 0.462516
0.078645 0.610986 0.504662
0.166384 0.59855 0.536339
0.345663 0.584604 0.506935
0.542412 0.569268 0.439277
0.685191 0.565744 0.41001
0.784527 0.573617 0.406012
0.869551 0.584222 0.404486
0.928573 0.595361 0.407919
0.0733501 0.712291 0.540551
0.0738231 0.699199 0.597574
0.164828 0.69659 0.638148
0.320989 0.695552 0.624933
0.503471 0.688731 0.545907
0.684703 0.677943 0.476585
0.816709 0.676219 0.471183
0.896147 0.686091 0.48571
0.940551 0.698756 0.499367
0.0572366 0.783703 0.638956
0.069749 0.772931 0.690532
0.163058 0.775891 0.725643
0.311635 0.785794 0.728023
0.469505 0.792203 0.671611
0.641566 0.789029 0.570153
0.815869 0.776303 0.527581
0.908171 0.778805 0.557168
0.947082 0.789303 0.587198
0.0423743 0.8486 0.740536
0.0695048 0.842329 0.777874
0.164218 0.848539 0.802045
0.306584 0.86215 0.808743
0.459113 0.875776 0.781445
0.607706 0.881956 0.690623
0.772 0.87332 0.606226
0.897093 0.859556 0.612711
0.946899 0.858671 0.656748
0.0335851 0.890288 0.805371
0.0768444 0.895491 0.844556
0.177111 0.905608 0.863294
0.312245 0.917952 0.86923
0.458442 0.929946 0.857282
0.600107 0.93756 0.797116
0.744106 0.934783 0.701289
0.874601 0.917678 0.66952
0.939208 0.905928 0.700511
0.0751965 0.297368 0.680385
0.164263 0.223072 0.672511
0.327779 0.0914015 0.64387
0.52781 0.0352331 0.588968
0.673243 0.0341955 0.528038
0.782696 0.0428016 0.471397
0.869963 0.05243 0.421668
0.930007 0.0606699 0.385855
0.949569 0.0671244 0.374136
0.0193637 0.363226 0.631083
0.0808118 0.319081 0.615549
0.252934 0.22533 0.598505
0.466163 0.153307 0.549371
0.622141 0.147738 0.486915
0.736934 0.15671 0.433433
0.830594 0.168688 0.390448
0.904097 0.18294 0.360235
0.945785 0.198016 0.345815
0.0297551 0.455131 0.626291
0.0568551 0.430259 0.603174
0.188403 0.383413 0.570153
0.404669 0.324636 0.52105
0.579171 0.304967 0.464683
0.699519 0.310826 0.420691
0.796139 0.325093 0.391897
0.878416 0.342443 0.375006
0.932891 0.357778 0.368872
0.0343481 0.551904 0.571405
0.0495766 0.532845 0.560174
0.154055 0.512795 0.552254
0.354711 0.482933 0.525307
0.544472 0.462959 0.47805
0.66772 0.463218 0.440726
0.766842 0.472816 0.420005
0.85716 0.485466 0.411337
0.923598 0.498222 0.410666
0.0509346 0.66099 0.551705
0.059678 0.644297 0.553719
0.137453 0.629877 0.571191
0.32401 0.612833 0.574166
0.524941 0.596094 0.537469
0.664973 0.591394 0.501167
0.76704 0.596094 0.482643
0.856977 0.604852 0.47451
0.922332 0.615869 0.475257
0.0761883 0.75903 0.574502
0.0757458 0.743999 0.600183
0.146532 0.733181 0.63888
0.31516 0.721508 0.660365
0.503044 0.709667 0.632074
0.668788 0.699046 0.569238
0.793317 0.698253 0.54789
0.877531 0.706996 0.551247
0.930892 0.718318 0.558129
0.088304 0.839918 0.627024
0.0857862 0.824323 0.673671
0.165057 0.815686 0.724254
0.325567 0.812009 0.754238
0.491539 0.809552 0.739788
0.63978 0.80415 0.663584
0.79678 0.79498 0.602289
0.89633 0.796384 0.616053
0.940429 0.805768 0.639567
0.0762798 0.899886 0.711757
0.0876783 0.887358 0.762676
0.179294 0.881071 0.809323
0.337942 0.883314 0.835096
0.49276 0.889448 0.830274
0.621347 0.890944 0.773953
0.760891 0.885176 0.685115
0.885954 0.873762 0.668147
0.942916 0.871702 0.702037
0.0584115 0.929946 0.77911
0.0894484 0.925948 0.839002
0.202914 0.926101 0.875792
0.355566 0.930724 0.893355
0.497658 0.937819 0.891997
0.621698 0.942397 0.857389
0.743603 0.939544 0.778683
0.863874 0.927077 0.730266
0.934722 0.916121 0.743252
0.0817273 0.352834 0.798184
0.172366 0.292088 0.803662
0.30927 0.151781 0.792096
0.520272 0.0471046 0.757626
0.683955 0.0318914 0.702525
0.799573 0.04065 0.647852
0.886275 0.0493172 0.5991
0.937682 0.0565194 0.561349
0.950668 0.0617838 0.550271
0.0158541 0.416693 0.742092
0.0724193 0.380789 0.736202
0.230411 0.287129 0.742107
0.451484 0.172763 0.721889
0.634638 0.146395 0.667567
0.758465 0.155764 0.609094
0.85301 0.166598 0.560113
0.919051 0.177234 0.522499
0.950057 0.189395 0.500969
0.0315099 0.511864 0.774746
0.0504158 0.487572 0.748638
0.161318 0.439521 0.713603
0.382544 0.35491 0.686015
0.589166 0.310292 0.64036
0.726528 0.312917 0.58616
0.8271 0.324865 0.542687
0.900999 0.339162 0.512535
0.942351 0.354726 0.496361
0.03505 0.593683 0.731487
0.048127 0.577523 0.719173
0.135149 0.557946 0.69659
0.327321 0.51931 0.666133
0.541955 0.481834 0.623285
0.691234 0.47335 0.575525
0.796735 0.480491 0.538155
0.876707 0.493278 0.517891
0.930816 0.507652 0.510597
0.0292058 0.686625 0.680735
0.039765 0.670726 0.668833
0.108278 0.658976 0.664515
0.285985 0.64268 0.659602
0.505196 0.621546 0.636912
0.669337 0.609262 0.596948
0.774792 0.611475 0.565408
0.859724 0.620722 0.551888
0.922805 0.632456 0.549966
0.0475624 0.790661 0.666529
0.0538033 0.774624 0.661814
0.105501 0.76289 0.669352
0.26923 0.748211 0.687938
0.48278 0.732876 0.689601
0.656382 0.720806 0.655329
0.774502 0.719738 0.623621
0.864256 0.72607 0.612924
0.923156 0.735988 0.615305
0.0791333 0.880186 0.681208
0.0808576 0.86685 0.689097
0.134279 0.855024 0.718639
0.287602 0.842756 0.755657
0.486107 0.831159 0.773754
0.642344 0.821561 0.739895
0.781552 0.813657 0.684276
0.881178 0.81471 0.676844
0.931563 0.822599 0.690761
0.0865034 0.93579 0.714931
0.0916915 0.925414 0.744839
0.160204 0.91632 0.789761
0.324208 0.909438 0.834867
0.509819 0.905577 0.857481
0.643351 0.902022 0.836851
0.759441 0.89659 0.765408
0.876081 0.887175 0.729747
0.937743 0.885069 0.748959
0.0733349 0.953964 0.755596
0.0899062 0.950835 0.805875
0.192096 0.946548 0.860334
0.367163 0.944793 0.897749
0.532616 0.945907 0.913542
0.652399 0.947021 0.900298
0.754055 0.944244 0.847959
0.858412 0.935241 0.794537
0.931136 0.925856 0.789105
0.0827802 0.374228 0.848539
0.172351 0.326833 0.869337
0.291005 0.203983 0.884062
0.498421 0.0664225 0.883146
0.683803 0.0321355 0.847303
0.80798 0.0400549 0.799252
0.896483 0.0502174 0.75552
0.943297 0.057908 0.721126
0.952667 0.0633555 0.71191
0.0110323 0.445808 0.802899
0.0662394 0.418296 0.81001
0.210285 0.338872 0.834089
0.415915 0.205386 0.846281
0.628397 0.145449 0.82092
0.769757 0.154833 0.769421
0.867185 0.17145 0.720913
0.927916 0.183154 0.683391
0.951598 0.194095 0.66154
0.0305028 0.548959 0.869749
0.0439155 0.525246 0.84184
0.137545 0.484077 0.813077
0.345235 0.392218 0.809216
0.575311 0.31986 0.793194
0.740475 0.31281 0.748913
0.84686 0.328969 0.70106
0.915816 0.342901 0.664393
0.947677 0.355459 0.641855
0.048127 0.635889 0.871199
0.0578317 0.620722 0.858518
0.128786 0.59997 0.826703
0.300237 0.557229 0.792355
0.52517 0.502708 0.768215
0.704585 0.481147 0.727886
0.821103 0.48719 0.681987
0.898207 0.499168 0.649653
0.940993 0.512734 0.63212
0.033341 0.71545 0.8177
0.0428016 0.701335 0.807584
0.106157 0.691218 0.797787
0.263844 0.675578 0.778363
0.480705 0.649256 0.753201
0.668681 0.626993 0.718502
0.795422 0.622751 0.676646
0.879301 0.6309 0.650706
0.932265 0.643091 0.641138
0.0259861 0.81059 0.782238
0.0340581 0.795361 0.770031
0.0823835 0.784802 0.762448
0.229328 0.773175 0.758373
0.446983 0.758312 0.755779
0.642206 0.74284 0.737972
0.778637 0.735409 0.702449
0.867643 0.739696 0.680751
0.92282 0.749844 0.677729
0.0426184 0.902968 0.77789
0.0489052 0.890562 0.765774
0.092668 0.880049 0.766262
0.226596 0.867689 0.776989
0.438849 0.854078 0.791959
0.631083 0.841077 0.791959
0.77203 0.831968 0.760372
0.867582 0.832013 0.739422
0.92372 0.837705 0.74081
0.0533761 0.952758 0.784863
0.0650339 0.945785 0.782422
0.116732 0.940078 0.794629
0.261143 0.932143 0.825193
0.476127 0.922621 0.858534
0.648692 0.914626 0.869001
0.765698 0.907912 0.834791
0.869841 0.899748 0.794247
0.930983 0.898421 0.797742
0.052079 0.963256 0.794705
0.0705425 0.961959 0.808545
0.148013 0.959854 0.840024
0.325338 0.957031 0.880507
0.529763 0.95433 0.914534
0.673854 0.951919 0.922972
0.772229 0.948821 0.898192
0.859861 0.94229 0.855619
0.929198 0.934997 0.836088
0.0750744 0.381521 0.852201
0.166522 0.337514 0.878584
0.278157 0.228534 0.904295
0.475502 0.0817426 0.935851
0.677348 0.033753 0.937346
0.812222 0.0394751 0.912123
0.90103 0.0545815 0.879133
0.945296 0.0661021 0.849317
0.953521 0.0724498 0.842374
0.00767529 0.456962 0.818006
0.0599985 0.432807 0.830014
0.193912 0.368811 0.866026
0.3823 0.235981 0.903563
0.60911 0.146853 0.917311
0.771618 0.149599 0.891966
0.874952 0.174975 0.854948
0.933394 0.193866 0.82118
0.953155 0.206119 0.800916
0.0271916 0.561563 0.905623
0.0376135 0.539178 0.87747
0.121569 0.50396 0.851896
0.310613 0.42237 0.866178
0.54699 0.331334 0.890089
0.740017 0.308003 0.878965
0.85745 0.331121 0.840787
0.923949 0.352178 0.804562
0.950683 0.365911 0.781079
0.055436 0.659205 0.952071
0.0635996 0.644083 0.939239
0.124453 0.623056 0.903243
0.275395 0.582345 0.867399
0.493812 0.522805 0.861677
0.698878 0.485176 0.855985
0.834928 0.490639 0.823743
0.911727 0.507805 0.786542
0.946227 0.520943 0.763409
0.0450446 0.73846 0.921798
0.0550698 0.726696 0.916457
0.116762 0.7178 0.908141
0.256092 0.702281 0.883284
0.455909 0.674647 0.855268
0.65626 0.642435 0.836057
0.808164 0.630106 0.806592
0.895293 0.638254 0.773709
0.940719 0.649348 0.754253
0.0248569 0.826154 0.889281
0.034165 0.812329 0.879728
0.0849012 0.803952 0.872709
0.224109 0.795636 0.865202
0.425177 0.783398 0.852201
0.623758 0.764843 0.833402
0.780163 0.749371 0.804776
0.880247 0.74876 0.776623
0.932769 0.757321 0.762127
0.0141604 0.913634 0.875486
0.0220493 0.902449 0.863264
0.0696117 0.893538 0.855528
0.20116 0.88365 0.849088
0.404898 0.873106 0.846693
0.606958 0.860731 0.847089
0.764263 0.8486 0.831662
0.870314 0.843854 0.806439
0.924331 0.848463 0.796216
0.0142519 0.958129 0.875685
0.0276188 0.953323 0.863676
0.0805829 0.949187 0.859007
0.214405 0.943679 0.859663
0.425605 0.935561 0.871015
0.621698 0.927031 0.884993
0.764218 0.918654 0.880217
0.866468 0.911467 0.854047
0.924956 0.910292 0.845365
0.0147402 0.965713 0.878279
0.0356909 0.965423 0.869245
0.109697 0.964523 0.870771
0.27129 0.963012 0.884413
0.481712 0.960372 0.906905
0.66186 0.95668 0.92697
0.781353 0.953079 0.926268
0.8654 0.948394 0.903136
0.928878 0.94342 0.880705
0.0663615 0.38793 0.845838
0.162097 0.344427 0.876188
0.272862 0.240497 0.904662
0.465278 0.0903029 0.941009
0.673411 0.035996 0.954742
0.813718 0.0401617 0.943587
0.903181 0.0575265 0.918761
0.945724 0.0709544 0.889204
0.953384 0.0775006 0.878737
0.0069276 0.467048 0.822522
0.0535286 0.444602 0.830854
0.181201 0.390234 0.864942
0.359625 0.261967 0.910185
0.589288 0.154452 0.945129
0.767865 0.147189 0.94609
0.877897 0.175586 0.927642
0.935821 0.202518 0.902007
0.953979 0.218082 0.882109
0.0294499 0.569375 0.917998
0.0378119 0.547112 0.887388
0.114519 0.515129 0.860731
0.288777 0.444129 0.877714
0.521538 0.345861 0.920272
0.730098 0.304967 0.938888
0.860853 0.328099 0.924178
0.927962 0.359289 0.898894
0.952438 0.378576 0.878157
0.0569314 0.666163 0.974182
0.066865 0.651408 0.961517
0.124102 0.631067 0.927077
0.260044 0.594079 0.89044
0.465415 0.537026 0.896086
0.682628 0.487083 0.922637
0.836576 0.488197 0.916838
0.918441 0.512642 0.891081
0.949447 0.531121 0.86862
0.0480964 0.746319 0.95877
0.0603647 0.736431 0.962448
0.122805 0.728679 0.956939
0.252033 0.713603 0.931716
0.43444 0.686976 0.903456
0.636301 0.651743 0.903548
0.808698 0.632609 0.906493
0.90457 0.642649 0.883635
0.944717 0.656992 0.860197
0.027924 0.831739 0.938033
0.0396887 0.819959 0.939284
0.0933852 0.813886 0.9402
0.227024 0.808423 0.938704
0.414252 0.797925 0.923751
0.604486 0.779812 0.905882
0.774853 0.758709 0.895796
0.887175 0.755077 0.877104
0.938674 0.764141 0.856901
0.00769055 0.916884 0.92636
0.0171359 0.907073 0.926558
0.0699321 0.899306 0.923033
0.205356 0.891844 0.920562
0.399542 0.885161 0.918273
0.59115 0.875074 0.91223
0.753307 0.860899 0.901152
0.871046 0.852903 0.88278
0.93019 0.855909 0.865599
0.00314336 0.959121 0.922011
0.016968 0.955444 0.921508
0.0801251 0.9523 0.920119
0.220706 0.94786 0.916426
0.415824 0.942214 0.915007
0.600259 0.935882 0.91635
0.750835 0.927687 0.916533
0.862547 0.920623 0.904799
0.926467 0.918196 0.890806
0.00422675 0.966217 0.923552
0.0299229 0.96614 0.921981
0.111955 0.96556 0.920607
0.263798 0.964813 0.921126
0.457923 0.963012 0.924132
0.63444 0.959976 0.933104
0.769024 0.956649 0.939116
0.865446 0.95349 0.932799
0.927932 0.950637 0.91931
