典雅绿调 709 Lut.cube
TITLE "Generated by Resolve"
LUT_3D_SIZE 33
0.0344701 0.0435187 0.0517281
0.0397192 0.043183 0.0509194
0.0594644 0.0422675 0.048188
0.0814374 0.0417639 0.0461738
0.112825 0.0421912 0.0445258
0.14226 0.0424659 0.0427558
0.178912 0.0439918 0.0415808
0.216159 0.0454108 0.0401312
0.25388 0.0472267 0.0389105
0.293217 0.0495308 0.0379034
0.331823 0.0519875 0.0370489
0.369482 0.0546731 0.0364385
0.407233 0.0583352 0.0365148
0.443275 0.0621042 0.0366979
0.477775 0.0657816 0.0368658
0.510979 0.0694133 0.0370184
0.542367 0.0729992 0.0372473
0.572992 0.0765393 0.0374762
0.602686 0.0800488 0.0377661
0.631113 0.0836042 0.0381628
0.659297 0.0871595 0.0385748
0.686549 0.090837 0.0390936
0.713527 0.0944381 0.0395819
0.740261 0.0982528 0.0402075
0.766613 0.102098 0.0408484
0.792401 0.106004 0.0415045
0.817395 0.109911 0.0421607
0.841856 0.113756 0.0427863
0.864225 0.117266 0.0433204
0.884092 0.120455 0.0437934
0.90338 0.123537 0.0441901
0.91722 0.125933 0.0444953
0.930083 0.128191 0.0447395
0.0333715 0.0519112 0.0562905
0.0424201 0.0518807 0.0553445
0.0651713 0.0510567 0.0522621
0.0894942 0.0513771 0.0502022
0.118227 0.0526131 0.0489967
0.148409 0.0539559 0.0476539
0.183551 0.0560616 0.0462806
0.218906 0.0583047 0.0447852
0.256916 0.0612497 0.0436255
0.295888 0.064332 0.0424506
0.334295 0.0676127 0.0413672
0.371847 0.0712291 0.0406806
0.408942 0.0748302 0.0398566
0.443793 0.0784619 0.0393835
0.477653 0.082063 0.0389715
0.510353 0.0856031 0.0385901
0.541024 0.0892805 0.0388037
0.57171 0.0929274 0.0389715
0.600122 0.0965591 0.039353
0.628367 0.100084 0.0396887
0.656046 0.103685 0.0400549
0.682902 0.107317 0.0405127
0.709651 0.110964 0.0409705
0.735897 0.114641 0.0414588
0.76202 0.118425 0.0419776
0.78761 0.122118 0.0424964
0.812421 0.125933 0.043061
0.836866 0.129656 0.0435798
0.859052 0.133196 0.0440375
0.879637 0.136492 0.0444343
0.898344 0.139635 0.04477
0.913588 0.142382 0.0450446
0.926696 0.144869 0.0452735
0.0340276 0.0778973 0.0709239
0.0443275 0.0750286 0.0673686
0.0681926 0.0716564 0.061326
0.0978256 0.0711223 0.0580911
0.127291 0.0712291 0.0553902
0.16025 0.072694 0.0534524
0.195483 0.0746777 0.0516365
0.231846 0.0769207 0.0499733
0.270207 0.0799878 0.0488136
0.308354 0.0829786 0.0474708
0.345388 0.0865492 0.0464179
0.382025 0.0901656 0.045304
0.417655 0.0937667 0.0442512
0.451087 0.0974441 0.043534
0.484321 0.100908 0.0426337
0.515312 0.104463 0.0421607
0.545632 0.107942 0.0417945
0.57525 0.111437 0.0416266
0.603601 0.114794 0.0419165
0.631617 0.118334 0.042298
0.65864 0.12192 0.0427405
0.685206 0.12549 0.043183
0.71165 0.129229 0.0436255
0.737697 0.132998 0.0440986
0.763424 0.136767 0.0445258
0.7888 0.140627 0.0449378
0.813352 0.144442 0.0453803
0.837736 0.148257 0.0457618
0.859159 0.15172 0.0461128
0.879973 0.155123 0.0464027
0.898238 0.158236 0.0466316
0.913329 0.160998 0.0467994
0.926818 0.163729 0.046952
0.0342412 0.104784 0.0882277
0.0423896 0.101076 0.0837568
0.065568 0.0975204 0.0765087
0.0989548 0.0950942 0.0683909
0.133654 0.0933394 0.0617685
0.172763 0.0939345 0.0591287
0.211383 0.094789 0.0569772
0.249012 0.0973678 0.0555276
0.286198 0.100206 0.0541238
0.323217 0.103258 0.0526436
0.359396 0.106798 0.0512551
0.395026 0.11046 0.049958
0.428992 0.114122 0.0489967
0.462318 0.117784 0.0484016
0.494789 0.12137 0.0478828
0.524742 0.124956 0.047715
0.554803 0.128511 0.0473487
0.5832 0.13196 0.0471351
0.61088 0.135393 0.046952
0.638056 0.138918 0.0468757
0.664561 0.142458 0.0471046
0.690562 0.145983 0.0472419
0.716381 0.14963 0.0473945
0.74197 0.153262 0.0476234
0.767407 0.156909 0.0478218
0.792279 0.160693 0.0481117
0.81677 0.164477 0.0483711
0.840177 0.168078 0.0486305
0.861753 0.171633 0.0488746
0.882521 0.175036 0.049073
0.900435 0.178256 0.0493477
0.915068 0.181155 0.0496681
0.929213 0.183917 0.0500038
0.031754 0.132753 0.107683
0.0373846 0.128939 0.103563
0.0654307 0.124865 0.0934157
0.0956893 0.121279 0.0822766
0.133532 0.119554 0.0749371
0.175158 0.118608 0.0687419
0.217075 0.118547 0.0635691
0.259174 0.120317 0.061326
0.300496 0.122301 0.0592813
0.338979 0.125246 0.0581979
0.37586 0.128634 0.0574197
0.410925 0.132082 0.056672
0.443244 0.135851 0.0560006
0.475273 0.139483 0.0551766
0.50576 0.143099 0.0545205
0.535149 0.146593 0.0539406
0.564263 0.150149 0.0532845
0.591531 0.153521 0.0528878
0.618952 0.156893 0.0524147
0.645411 0.160327 0.0521248
0.671489 0.163729 0.051957
0.697139 0.1673 0.0519722
0.722637 0.170993 0.0520333
0.747906 0.174594 0.0521248
0.773037 0.178286 0.0522164
0.797604 0.181994 0.052491
0.82208 0.185794 0.0526741
0.844419 0.189364 0.0529488
0.866178 0.19295 0.0532692
0.88603 0.196292 0.0536049
0.903029 0.199451 0.0539864
0.917815 0.202335 0.0543984
0.930785 0.205158 0.0548562
0.0302892 0.162585 0.134493
0.0374609 0.158877 0.129366
0.0616922 0.154849 0.11632
0.0886244 0.151431 0.103914
0.129076 0.147829 0.0908827
0.173083 0.14432 0.077409
0.220737 0.143618 0.0716869
0.269154 0.143786 0.068574
0.312734 0.145342 0.0664836
0.350927 0.14844 0.0656291
0.388174 0.151507 0.0645304
0.422705 0.15494 0.0636149
0.455573 0.158511 0.0627909
0.487282 0.162036 0.0620127
0.516945 0.16553 0.061326
0.546059 0.169024 0.0606088
0.573983 0.172503 0.0599527
0.600961 0.175875 0.0593423
0.627771 0.179171 0.0586862
0.653513 0.182483 0.0582437
0.679072 0.185748 0.0576791
0.704448 0.189227 0.0573892
0.729488 0.192859 0.0573434
0.754406 0.196399 0.0572518
0.778943 0.200046 0.0573434
0.803388 0.2038 0.0576028
0.827405 0.207507 0.0578164
0.8495 0.211124 0.0582284
0.871626 0.214893 0.0587472
0.890211 0.21828 0.0593423
0.906432 0.221302 0.0598917
0.921126 0.224338 0.0605173
0.932006 0.2271 0.0612039
0.0285954 0.191989 0.162936
0.0380255 0.188403 0.154742
0.05626 0.186069 0.143297
0.0839551 0.183444 0.129961
0.121736 0.180072 0.11368
0.161608 0.177035 0.0987106
0.212497 0.174716 0.0893416
0.26244 0.172717 0.0802472
0.309621 0.172717 0.0755474
0.355245 0.173861 0.0731518
0.395956 0.175937 0.0715648
0.432212 0.179004 0.0708476
0.466758 0.182116 0.0701152
0.498436 0.185397 0.0693828
0.528237 0.188846 0.0686809
0.556893 0.192264 0.0679789
0.583963 0.195712 0.0673228
0.610773 0.199008 0.0666056
0.636835 0.202289 0.0660258
0.662394 0.205722 0.0655222
0.687861 0.208957 0.0649271
0.712947 0.212329 0.0645762
0.737804 0.215732 0.0643473
0.762478 0.21944 0.0645609
0.786801 0.223194 0.0649424
0.810849 0.226947 0.0653544
0.833967 0.230655 0.0657664
0.856092 0.234379 0.0663005
0.876997 0.238041 0.0668345
0.894423 0.241215 0.0673838
0.910445 0.244266 0.0679484
0.924346 0.247196 0.0685283
0.933898 0.249912 0.0692912
0.0293278 0.22153 0.18999
0.037995 0.21883 0.182269
0.0536202 0.218631 0.17348
0.0796521 0.216876 0.158404
0.109392 0.21471 0.140993
0.151705 0.211231 0.124163
0.203128 0.206653 0.107149
0.254231 0.203082 0.0934615
0.306203 0.20174 0.0870985
0.355993 0.201236 0.0823224
0.398993 0.202579 0.0800031
0.438727 0.204761 0.0787976
0.474617 0.207187 0.077821
0.507149 0.210269 0.0772259
0.538216 0.213413 0.0766766
0.567086 0.216571 0.0761578
0.594476 0.219867 0.0756542
0.621302 0.223072 0.0751354
0.646922 0.226352 0.0746624
0.672328 0.229633 0.0742504
0.697169 0.232868 0.0738689
0.722011 0.236118 0.0735332
0.746563 0.239475 0.0732738
0.770886 0.242985 0.0733196
0.794919 0.246662 0.0736553
0.818357 0.250324 0.0740215
0.840711 0.254139 0.0746166
0.862974 0.258 0.0751812
0.881971 0.261479 0.0758221
0.899107 0.264683 0.0764477
0.914275 0.267796 0.0771344
0.926711 0.27071 0.0778668
0.936492 0.273381 0.078645
0.0307927 0.249912 0.214893
0.0374609 0.249058 0.210315
0.0516365 0.250614 0.203738
0.0748913 0.250416 0.188769
0.0996109 0.249958 0.173495
0.14316 0.24654 0.152789
0.188907 0.243015 0.131731
0.240024 0.239094 0.115297
0.296117 0.234989 0.102785
0.349096 0.232166 0.0934615
0.396658 0.231861 0.0897078
0.441398 0.232288 0.0872053
0.47953 0.234089 0.0861524
0.514504 0.236454 0.0858015
0.546807 0.239155 0.0855573
0.576196 0.242191 0.0853742
0.604364 0.245335 0.0851911
0.631296 0.248402 0.0849165
0.656916 0.251682 0.0847028
0.682399 0.254917 0.0845045
0.70721 0.258213 0.0843519
0.731929 0.261433 0.0841077
0.756405 0.264851 0.084062
0.780545 0.268376 0.0840925
0.804288 0.271794 0.0842145
0.827115 0.275517 0.0847791
0.849134 0.279194 0.0853132
0.870893 0.282902 0.0858625
0.887953 0.286046 0.0864729
0.904875 0.289189 0.087068
0.918517 0.292271 0.0878462
0.929717 0.295048 0.0886091
0.939422 0.297658 0.0894179
0.0308537 0.278737 0.241794
0.0360876 0.279332 0.240146
0.0502937 0.2822 0.233738
0.0691386 0.284092 0.222049
0.0944533 0.284581 0.206592
0.132616 0.282765 0.183261
0.173251 0.280476 0.160891
0.227008 0.275624 0.141039
0.283482 0.270436 0.122255
0.337942 0.266743 0.109911
0.39028 0.26421 0.102861
0.438315 0.263005 0.0981155
0.479774 0.263691 0.0964218
0.51899 0.264744 0.0954452
0.552895 0.266835 0.0952773
0.583947 0.26949 0.095491
0.613367 0.272312 0.0956741
0.640681 0.275242 0.0957504
0.666987 0.278279 0.0958267
0.6925 0.281346 0.0958877
0.717388 0.284474 0.0958267
0.74197 0.287633 0.0957809
0.766018 0.290883 0.0957809
0.790021 0.294179 0.0956893
0.813306 0.297398 0.0956436
0.835767 0.300755 0.0957351
0.857145 0.304402 0.0963455
0.876966 0.307912 0.0970321
0.894087 0.311131 0.0977646
0.910796 0.314321 0.098497
0.922713 0.317296 0.0994583
0.933349 0.320027 0.10042
0.942336 0.322789 0.101518
0.0302739 0.306249 0.268666
0.0344701 0.307698 0.268864
0.0490883 0.312184 0.26273
0.06392 0.316426 0.256062
0.0907149 0.318044 0.238544
0.121706 0.318868 0.21738
0.160372 0.317632 0.194812
0.212711 0.313466 0.169711
0.266407 0.309209 0.147066
0.323156 0.304006 0.131014
0.381567 0.298466 0.117418
0.431922 0.295949 0.110811
0.477745 0.295048 0.108202
0.520134 0.294881 0.106325
0.556329 0.296407 0.106111
0.590326 0.298329 0.106355
0.620722 0.300664 0.106645
0.648905 0.303471 0.107042
0.676005 0.306264 0.107332
0.702007 0.309178 0.107546
0.72723 0.312062 0.107683
0.751949 0.31516 0.107866
0.776333 0.318425 0.108019
0.800473 0.321508 0.108095
0.823087 0.324681 0.108263
0.845289 0.327932 0.108446
0.865858 0.331014 0.108675
0.884047 0.334142 0.109392
0.901045 0.337316 0.110262
0.915511 0.340337 0.111254
0.926772 0.343191 0.112367
0.936843 0.345983 0.113558
0.94461 0.348714 0.11487
0.0285649 0.333394 0.296208
0.0330205 0.336065 0.297017
0.0466163 0.342275 0.293111
0.0612497 0.347677 0.28751
0.0851759 0.35108 0.271321
0.111711 0.353841 0.253529
0.151324 0.353674 0.229648
0.197574 0.351888 0.202152
0.249287 0.348409 0.178195
0.30811 0.342535 0.158053
0.366217 0.336721 0.140047
0.419837 0.33283 0.130053
0.47219 0.329137 0.122499
0.517082 0.327871 0.118914
0.556985 0.328038 0.117876
0.594293 0.328649 0.117372
0.626505 0.330449 0.117739
0.656764 0.332555 0.118441
0.684932 0.334951 0.119066
0.711162 0.337743 0.119677
0.736919 0.340459 0.120211
0.761913 0.343328 0.120607
0.786267 0.346227 0.120958
0.81004 0.349035 0.121202
0.83241 0.352224 0.121462
0.854536 0.355398 0.121798
0.873823 0.358221 0.122087
0.891386 0.360998 0.122469
0.907729 0.364034 0.123415
0.920058 0.366918 0.124712
0.931319 0.369787 0.126116
0.939864 0.372747 0.127718
0.946624 0.375463 0.12929
0.0266423 0.359518 0.322927
0.0330358 0.362799 0.32221
0.0439612 0.370611 0.322225
0.0596323 0.377432 0.316457
0.0802777 0.383093 0.304768
0.10396 0.387854 0.290944
0.142107 0.389487 0.265324
0.182345 0.390311 0.239246
0.23299 0.387366 0.212894
0.290761 0.382101 0.185763
0.348669 0.376455 0.164599
0.40679 0.370489 0.150332
0.463279 0.364904 0.138323
0.510948 0.362325 0.133242
0.556161 0.360647 0.130404
0.595346 0.360418 0.12929
0.62974 0.361501 0.129625
0.66212 0.362982 0.130297
0.691402 0.365026 0.131121
0.718975 0.367391 0.132067
0.74548 0.369924 0.132906
0.770611 0.372778 0.133639
0.795453 0.375509 0.13431
0.818921 0.378317 0.134905
0.84152 0.381216 0.135561
0.862547 0.384039 0.136172
0.880995 0.386679 0.136828
0.898283 0.389349 0.13753
0.913161 0.391852 0.138262
0.92462 0.394415 0.139361
0.935973 0.397269 0.140902
0.942657 0.400137 0.142733
0.948943 0.402899 0.144533
0.0249332 0.385657 0.34902
0.0320134 0.390494 0.348562
0.0413214 0.399664 0.35111
0.0571145 0.407355 0.346151
0.0750744 0.414557 0.338949
0.0997177 0.419989 0.324361
0.132219 0.423896 0.301595
0.169986 0.42591 0.27744
0.219135 0.424216 0.249058
0.271626 0.421576 0.21973
0.329213 0.416236 0.196307
0.390066 0.409522 0.175784
0.447379 0.403861 0.160372
0.49987 0.399405 0.151598
0.550835 0.395361 0.14461
0.592889 0.393942 0.142306
0.631312 0.393515 0.141878
0.666026 0.394018 0.142214
0.696864 0.395666 0.143435
0.72604 0.397635 0.144915
0.753384 0.399954 0.146334
0.779324 0.402564 0.147692
0.804318 0.405081 0.148852
0.827344 0.407782 0.149722
0.850263 0.410574 0.150683
0.869673 0.413138 0.151446
0.887831 0.415747 0.152346
0.903868 0.418143 0.153231
0.917327 0.420645 0.154253
0.928756 0.42295 0.155276
0.938811 0.425376 0.156451
0.945159 0.428229 0.158572
0.951202 0.431052 0.160662
0.0251774 0.412482 0.37319
0.0309758 0.417746 0.374548
0.0401923 0.426841 0.377234
0.0545052 0.435554 0.375021
0.0701152 0.443809 0.371466
0.0952773 0.450538 0.356847
0.122683 0.456641 0.339666
0.158511 0.46041 0.316503
0.203113 0.461555 0.286
0.251759 0.460899 0.256367
0.30988 0.455802 0.228702
0.371649 0.44947 0.200885
0.430289 0.443214 0.183825
0.488029 0.436912 0.170962
0.541161 0.431846 0.161395
0.586786 0.428992 0.157656
0.630289 0.426703 0.155474
0.666712 0.426581 0.155657
0.699901 0.427497 0.157092
0.730709 0.428885 0.158648
0.758938 0.43093 0.160311
0.785779 0.43331 0.16199
0.811124 0.435721 0.163485
0.834577 0.438331 0.164767
0.857496 0.440833 0.166033
0.876112 0.443107 0.167132
0.894591 0.445457 0.168322
0.909209 0.447822 0.169635
0.921874 0.450034 0.170916
0.932769 0.452155 0.172229
0.940993 0.454414 0.173693
0.947829 0.456794 0.175235
0.952773 0.459648 0.177508
0.0244297 0.438849 0.398184
0.0287785 0.444404 0.401053
0.0378882 0.454063 0.404456
0.050782 0.463416 0.404654
0.0661021 0.472114 0.401846
0.0894789 0.479805 0.389868
0.115068 0.486778 0.375769
0.14931 0.491676 0.352682
0.187411 0.495781 0.325124
0.235538 0.495811 0.295476
0.291829 0.492821 0.264012
0.349706 0.488792 0.234516
0.410513 0.482292 0.212985
0.472389 0.475456 0.192966
0.527214 0.469886 0.181628
0.578454 0.464836 0.174914
0.625772 0.461158 0.170596
0.665629 0.459785 0.170062
0.702464 0.459434 0.171038
0.735027 0.460197 0.17261
0.764523 0.46215 0.174746
0.792157 0.464256 0.176745
0.817395 0.466484 0.178546
0.841138 0.468849 0.18027
0.86305 0.471077 0.181811
0.882155 0.473274 0.183352
0.899916 0.475425 0.184848
0.91368 0.477592 0.18645
0.926406 0.479728 0.188067
0.936461 0.482002 0.189853
0.943603 0.484276 0.191699
0.950454 0.486442 0.193545
0.954269 0.489067 0.195636
0.023209 0.464408 0.423178
0.0271611 0.470085 0.426581
0.036347 0.479805 0.430106
0.0469062 0.489464 0.432654
0.0632944 0.498375 0.429267
0.083299 0.507256 0.422782
0.107362 0.515175 0.410956
0.139178 0.522011 0.389334
0.173526 0.528099 0.365652
0.219806 0.530037 0.334646
0.271046 0.530159 0.30042
0.328359 0.526757 0.270451
0.390707 0.520714 0.243824
0.453025 0.514229 0.219471
0.510765 0.507698 0.205493
0.568109 0.500923 0.193683
0.616632 0.496696 0.188128
0.660105 0.493996 0.186481
0.700099 0.492348 0.186191
0.734905 0.492622 0.187518
0.766674 0.49369 0.189578
0.79585 0.495415 0.191745
0.822156 0.497505 0.193851
0.84683 0.499702 0.195911
0.867918 0.501778 0.197803
0.887953 0.503944 0.199832
0.904295 0.505852 0.201801
0.91809 0.507774 0.203815
0.9299 0.509712 0.205859
0.938994 0.511833 0.208103
0.94609 0.514122 0.210498
0.952102 0.51632 0.212833
0.955505 0.518853 0.21532
0.0214694 0.489403 0.448142
0.0250553 0.495293 0.451972
0.0337987 0.505135 0.456001
0.042298 0.514702 0.460136
0.059678 0.524071 0.457191
0.0775158 0.533074 0.453437
0.101015 0.541497 0.442588
0.129595 0.549661 0.42591
0.163729 0.556161 0.403983
0.206622 0.560174 0.373556
0.252232 0.563088 0.341314
0.308904 0.561212 0.30959
0.369558 0.55761 0.277028
0.430976 0.552148 0.250675
0.492622 0.545098 0.231235
0.552895 0.538079 0.21442
0.605005 0.532753 0.206867
0.654551 0.527642 0.202396
0.697139 0.525231 0.201205
0.734234 0.524788 0.202625
0.768002 0.525139 0.204639
0.798321 0.526497 0.206958
0.825772 0.528466 0.209461
0.850996 0.530404 0.211933
0.872282 0.532403 0.214267
0.893309 0.534325 0.216648
0.908034 0.536233 0.219165
0.92224 0.538125 0.221866
0.93286 0.540108 0.224659
0.941375 0.542062 0.227466
0.948226 0.544152 0.230365
0.953262 0.546578 0.233448
0.95668 0.548867 0.236301
0.0196231 0.513619 0.472602
0.0236667 0.519783 0.476341
0.0311894 0.529442 0.481041
0.0405432 0.538735 0.484291
0.0554665 0.54847 0.484367
0.0721904 0.557946 0.48246
0.0952316 0.567102 0.473976
0.120439 0.575998 0.463325
0.153857 0.583413 0.441718
0.192233 0.589548 0.413428
0.236301 0.593378 0.382834
0.29073 0.593469 0.348135
0.346807 0.59292 0.312535
0.408682 0.587732 0.284657
0.472511 0.581353 0.259159
0.532876 0.574838 0.240085
0.589029 0.568368 0.229175
0.643061 0.562219 0.220996
0.688502 0.558785 0.218463
0.730282 0.556695 0.218753
0.766903 0.556207 0.220188
0.798642 0.55729 0.22266
0.827817 0.558907 0.225452
0.853422 0.560754 0.228367
0.875975 0.562753 0.231266
0.896345 0.564706 0.234287
0.911345 0.566522 0.237461
0.925719 0.568322 0.240772
0.935485 0.57023 0.244221
0.94403 0.572229 0.247776
0.950347 0.574243 0.251286
0.954467 0.576547 0.254917
0.957855 0.578775 0.258213
0.0175479 0.537224 0.49659
0.0220493 0.543877 0.500252
0.027985 0.553201 0.505623
0.038468 0.562722 0.508659
0.0512093 0.57229 0.510674
0.0675212 0.58175 0.509651
0.0894789 0.590997 0.503807
0.113909 0.599832 0.494667
0.145373 0.607904 0.475761
0.17908 0.615564 0.453788
0.223148 0.620203 0.423224
0.272984 0.623209 0.387579
0.326009 0.624598 0.352453
0.387335 0.621225 0.320333
0.450355 0.617273 0.287541
0.511803 0.610819 0.267079
0.572961 0.603235 0.250935
0.629099 0.596948 0.240452
0.678309 0.592279 0.236728
0.724163 0.588739 0.235599
0.76318 0.587396 0.236622
0.797635 0.587732 0.239307
0.828717 0.588678 0.242283
0.854353 0.590616 0.245747
0.878264 0.592538 0.249271
0.89752 0.594507 0.252995
0.914046 0.596338 0.256886
0.927428 0.59823 0.260884
0.937285 0.600198 0.26508
0.945617 0.60206 0.269276
0.951431 0.604166 0.273564
0.955459 0.6065 0.277974
0.958511 0.608408 0.281559
0.0158999 0.56054 0.51989
0.0205234 0.567514 0.523537
0.0258488 0.576577 0.529091
0.0360571 0.586114 0.532692
0.0474403 0.595392 0.535561
0.0636149 0.604562 0.535317
0.0827192 0.613916 0.533501
0.107042 0.62269 0.524956
0.136538 0.631128 0.510048
0.168704 0.63917 0.491875
0.210788 0.645274 0.461875
0.255161 0.650996 0.428885
0.307942 0.652796 0.393957
0.366766 0.652338 0.357412
0.427207 0.650477 0.322728
0.490333 0.644511 0.298405
0.554726 0.637705 0.275319
0.61207 0.631373 0.263508
0.665934 0.62536 0.25713
0.714641 0.620905 0.254002
0.756497 0.618769 0.254612
0.794263 0.617731 0.25687
0.826963 0.618112 0.259983
0.854398 0.619806 0.263874
0.879591 0.621576 0.267964
0.898634 0.623804 0.272435
0.917098 0.626032 0.277089
0.92874 0.627787 0.281941
0.939178 0.629725 0.287007
0.946746 0.631678 0.292103
0.952209 0.633646 0.29723
0.956252 0.635798 0.302449
0.958648 0.637583 0.306477
0.0148775 0.584085 0.542626
0.0184024 0.590829 0.546792
0.0243229 0.599603 0.55198
0.033341 0.608606 0.556008
0.0440681 0.617548 0.559258
0.0601511 0.626566 0.559762
0.0777752 0.635523 0.559243
0.101503 0.644358 0.552468
0.128252 0.653117 0.542901
0.160678 0.661265 0.525505
0.199527 0.668803 0.499245
0.240314 0.675792 0.470939
0.292027 0.67921 0.434775
0.345861 0.682185 0.396384
0.405341 0.681071 0.362081
0.469551 0.676829 0.331426
0.533516 0.671702 0.304509
0.593194 0.665156 0.29012
0.651789 0.658198 0.278813
0.702296 0.6533 0.274022
0.747906 0.649592 0.27364
0.788464 0.647501 0.275135
0.822522 0.647364 0.278508
0.852628 0.648112 0.28275
0.878401 0.649653 0.287556
0.898741 0.651835 0.292805
0.917678 0.654169 0.298375
0.929213 0.656199 0.304356
0.940383 0.658228 0.310338
0.947387 0.660182 0.316365
0.952865 0.662242 0.322576
0.956847 0.664317 0.328634
0.958541 0.666026 0.333013
0.0137942 0.606928 0.564935
0.0165103 0.61323 0.569268
0.0228275 0.62182 0.574166
0.0307012 0.630411 0.578546
0.0415045 0.639033 0.581781
0.0560769 0.647822 0.583597
0.073518 0.65658 0.583398
0.0962234 0.665354 0.57911
0.120729 0.673976 0.573312
0.153536 0.682506 0.556756
0.189425 0.690806 0.5364
0.230243 0.698131 0.510109
0.279133 0.703746 0.474159
0.328862 0.709194 0.437675
0.388235 0.709194 0.401709
0.450416 0.708003 0.365469
0.513161 0.703853 0.337972
0.575189 0.697688 0.318227
0.63566 0.691173 0.302266
0.688487 0.685603 0.295628
0.738109 0.680247 0.293111
0.78117 0.676951 0.293614
0.817487 0.675624 0.297368
0.850141 0.675273 0.302037
0.875578 0.676753 0.30779
0.898039 0.678676 0.314015
0.915908 0.680781 0.320699
0.929107 0.683223 0.327916
0.94023 0.685405 0.335058
0.94728 0.68748 0.342245
0.952911 0.689494 0.349416
0.956756 0.691585 0.356435
0.958236 0.693111 0.361181
0.0123903 0.629221 0.586954
0.015259 0.635355 0.591165
0.0213779 0.64358 0.595911
0.0285344 0.651774 0.600443
0.0397955 0.660121 0.60354
0.0527962 0.668589 0.606195
0.0702068 0.67718 0.606378
0.0911879 0.685802 0.604578
0.115496 0.694469 0.599802
0.147601 0.703319 0.586572
0.181033 0.712047 0.572488
0.223117 0.719768 0.545449
0.268513 0.727138 0.513878
0.317678 0.732921 0.479942
0.37496 0.735103 0.441657
0.432547 0.736904 0.403479
0.494331 0.733822 0.374487
0.557107 0.729595 0.347539
0.616709 0.72401 0.329442
0.673152 0.717372 0.319203
0.725902 0.71104 0.313344
0.771084 0.706676 0.313039
0.811017 0.703578 0.316533
0.84593 0.702083 0.321416
0.872251 0.703212 0.328328
0.896941 0.704234 0.335485
0.913741 0.706386 0.343648
0.929183 0.708904 0.3523
0.939147 0.71104 0.360647
0.946822 0.713237 0.369162
0.952407 0.715282 0.377325
0.956115 0.717327 0.385229
0.9579 0.718868 0.390524
0.0112459 0.651026 0.608484
0.0142367 0.656901 0.612482
0.0198825 0.664866 0.617273
0.0268254 0.672633 0.621622
0.0380255 0.680842 0.624872
0.0506447 0.689143 0.627726
0.0678721 0.697581 0.628473
0.0869459 0.706127 0.628595
0.112657 0.714794 0.623346
0.14287 0.723598 0.614679
0.175296 0.732372 0.603815
0.216876 0.740826 0.578958
0.258824 0.749477 0.554253
0.308324 0.755581 0.519585
0.361074 0.760693 0.480827
0.416571 0.763714 0.443305
0.477302 0.762448 0.410239
0.538628 0.760647 0.377646
0.598459 0.755322 0.357961
0.657771 0.748745 0.342763
0.710964 0.742702 0.334874
0.75848 0.736889 0.333822
0.80145 0.732174 0.336126
0.837385 0.729503 0.341268
0.867033 0.728725 0.348989
0.893217 0.728649 0.357351
0.910811 0.730541 0.366979
0.928145 0.732586 0.376959
0.93756 0.734874 0.386709
0.946166 0.737133 0.39646
0.951705 0.739391 0.405692
0.955428 0.741588 0.414542
0.95758 0.743038 0.420203
0.010071 0.672358 0.629618
0.0136416 0.67837 0.633524
0.018616 0.685863 0.638254
0.0263371 0.693599 0.64242
0.0365911 0.701579 0.646006
0.0493629 0.709697 0.648814
0.0659495 0.718044 0.650309
0.0840162 0.726345 0.651194
0.109834 0.734981 0.647105
0.137438 0.743603 0.642206
0.171618 0.7523 0.629801
0.211551 0.761059 0.610574
0.252125 0.769711 0.590707
0.300847 0.776577 0.556039
0.349416 0.783551 0.521233
0.404227 0.787152 0.484535
0.461555 0.789319 0.446586
0.52015 0.789502 0.412512
0.580575 0.785489 0.388083
0.641596 0.780316 0.365835
0.695903 0.773816 0.356344
0.746868 0.766369 0.354116
0.791852 0.76054 0.355352
0.828916 0.756725 0.36144
0.861875 0.753872 0.369284
0.887388 0.75314 0.378805
0.908064 0.753872 0.389746
0.924788 0.755016 0.400854
0.935531 0.75697 0.411963
0.944732 0.759014 0.422934
0.950423 0.761135 0.433173
0.954437 0.763317 0.443046
0.956832 0.764736 0.449195
0.00915541 0.693553 0.650568
0.0131838 0.699763 0.654414
0.0175479 0.706889 0.659113
0.0263066 0.714611 0.66302
0.035935 0.722347 0.666804
0.0489204 0.730358 0.669627
0.0643473 0.738445 0.671687
0.0831769 0.746639 0.67219
0.107164 0.755032 0.670298
0.132128 0.763317 0.668055
0.167605 0.772152 0.65658
0.205142 0.780926 0.643626
0.246632 0.789441 0.622858
0.29279 0.797726 0.592706
0.338491 0.8056 0.563287
0.392493 0.81004 0.524208
0.446189 0.814664 0.484489
0.503899 0.814862 0.451225
0.563485 0.813031 0.421256
0.621546 0.809659 0.397864
