典雅绿调 709 Lut.cube
TITLE "Generated by Resolve"
LUT_3D_SIZE 5
0.0344701 0.0435187 0.0517281
0.25388 0.0472267 0.0389105
0.542367 0.0729992 0.0372473
0.766613 0.102098 0.0408484
0.930083 0.128191 0.0447395
0.0307927 0.249912 0.214893
0.296117 0.234989 0.102785
0.604364 0.245335 0.0851911
0.804288 0.271794 0.0842145
0.939422 0.297658 0.0894179
0.023209 0.464408 0.423178
0.173526 0.528099 0.365652
0.616632 0.496696 0.188128
0.867918 0.501778 0.197803
0.955505 0.518853 0.21532
0.0112459 0.651026 0.608484
0.112657 0.714794 0.623346
0.477302 0.762448 0.410239
0.867033 0.728725 0.348989
0.95758 0.743038 0.420203
0.010132 0.790906 0.744656
0.104967 0.858579 0.780682
0.413611 0.912062 0.692119
0.802411 0.910246 0.501213
0.949233 0.873503 0.589364
0.0504768 0.148104 0.341634
0.312886 0.0471199 0.254505
0.609369 0.0544747 0.173251
0.814389 0.0815747 0.139605
0.943679 0.107973 0.128985
0.0443885 0.346059 0.298054
0.232898 0.291478 0.264607
0.540444 0.289509 0.209628
0.761059 0.314443 0.193347
0.924102 0.343313 0.192279
0.0601053 0.574945 0.446174
0.165133 0.566842 0.504402
0.562051 0.54258 0.339101
0.812406 0.548394 0.330327
0.938323 0.572 0.34374
0.0242161 0.727031 0.655634
0.138277 0.747356 0.698512
0.455024 0.779171 0.584512
0.831434 0.758785 0.462715
0.951888 0.773159 0.533272
0.0191348 0.850813 0.797971
0.14316 0.887922 0.837705
0.428672 0.92256 0.813916
0.755978 0.929641 0.623819
0.943694 0.895308 0.661006
0.0751965 0.297368 0.680385
0.327779 0.0914015 0.64387
0.673243 0.0341955 0.528038
0.869963 0.05243 0.421668
0.949569 0.0671244 0.374136
0.0297551 0.455131 0.626291
0.188403 0.383413 0.570153
0.579171 0.304967 0.464683
0.796139 0.325093 0.391897
0.932891 0.357778 0.368872
0.0509346 0.66099 0.551705
0.137453 0.629877 0.571191
0.524941 0.596094 0.537469
0.76704 0.596094 0.482643
0.922332 0.615869 0.475257
0.088304 0.839918 0.627024
0.165057 0.815686 0.724254
0.491539 0.809552 0.739788
0.79678 0.79498 0.602289
0.940429 0.805768 0.639567
0.0584115 0.929946 0.77911
0.202914 0.926101 0.875792
0.497658 0.937819 0.891997
0.743603 0.939544 0.778683
0.934722 0.916121 0.743252
0.0827802 0.374228 0.848539
0.291005 0.203983 0.884062
0.683803 0.0321355 0.847303
0.896483 0.0502174 0.75552
0.952667 0.0633555 0.71191
0.0305028 0.548959 0.869749
0.137545 0.484077 0.813077
0.575311 0.31986 0.793194
0.84686 0.328969 0.70106
0.947677 0.355459 0.641855
0.033341 0.71545 0.8177
0.106157 0.691218 0.797787
0.480705 0.649256 0.753201
0.795422 0.622751 0.676646
0.932265 0.643091 0.641138
0.0426184 0.902968 0.77789
0.092668 0.880049 0.766262
0.438849 0.854078 0.791959
0.77203 0.831968 0.760372
0.92372 0.837705 0.74081
0.052079 0.963256 0.794705
0.148013 0.959854 0.840024
0.529763 0.95433 0.914534
0.772229 0.948821 0.898192
0.929198 0.934997 0.836088
0.0663615 0.38793 0.845838
0.272862 0.240497 0.904662
0.673411 0.035996 0.954742
0.903181 0.0575265 0.918761
0.953384 0.0775006 0.878737
0.0294499 0.569375 0.917998
0.114519 0.515129 0.860731
0.521538 0.345861 0.920272
0.860853 0.328099 0.924178
0.952438 0.378576 0.878157
0.0480964 0.746319 0.95877
0.122805 0.728679 0.956939
0.43444 0.686976 0.903456
0.808698 0.632609 0.906493
0.944717 0.656992 0.860197
0.00769055 0.916884 0.92636
0.0699321 0.899306 0.923033
0.399542 0.885161 0.918273
0.753307 0.860899 0.901152
0.93019 0.855909 0.865599
0.00422675 0.966217 0.923552
0.111955 0.96556 0.920607
0.457923 0.963012 0.924132
0.769024 0.956649 0.939116
0.927932 0.950637 0.91931
